!!!!SEGMENT: pl-wtm--r-1226--020_lodwigowski-edward-stefan--piekne-to-bylo.krn
!!!cenid: 18xx:1936
!!!COM: Łodwigowski, Edward Stefan
!!!COM-rismID: pe30111147
!!!CDT: 1815/08/14-1895/11/12
!!!CNT: Polish
!!!OTL: Piękne to było
!!!PDT:
!!!AGN:
!!!SMS-siglum: PL-Wtm
!!!SMS-shelfmark: R 1226
!!!SMS-shelfwork: 020 W
!!!SMS-variant:
!!!SMS-altvar:
!!!NIFC-rismSourceID: 1001084009
!!!NIFC-rismChildID: 1001084009
!!!NIFC-islandoraID:
!!!URL-pdf-islandora:
!!!URL-scan:
!!!IIIF:
!!!ONB-nifc: UWAGA: No. 68
!!!OMD: Allegro
!!!AIN: 1 forte
!!!key:
**kern	**fing	**kern	**fing	**dynam
*part1	*part1	*part1	*part1	*part1
*staff2	*staff2	*staff1	*staff1	*
*Iforte	*	*Iforte	*	*
*I"Fortepian	*	*I"Fortepian	*	*
*clefF4	*	*clefG2	*	*
*k[b-e-]	*	*k[b-e-]	*	*
*B-:	*	*B-:	*	*
*M12/8	*	*M12/8	*	*
*all\right	*	*all\right	*	*
=1	=1	=1	=1	=1
*^	*	*	*	*
*	*	*below	*	*	*
!	!	!	!LO:TX:a:i:t=Piękne to było... Kurpińskiego	!	!
!	!	!	!LO:TX:a:Bi:t=No. 68	!	!LO:DY:t=mf.
8BB-/L	4.BB-\	4	(4.f/	1	mf
(<8D/	.	.	.	.	.
8F/J)	.	.	.	.	.
8BB-/L	4.BB-\	.	4dd\	5	.
(<8D/	.	.	.	.	.
8F/J)	.	.	8cc\	.	.
8BB-/L	4.BB-\	.	4.b-\)	.	.
(<8D/	.	.	.	.	.
8F/J)	.	.	.	.	.
8BB-/L	4.BB-\	.	4.b-\	4	.
(<8D/	.	.	.	.	.
8F/J)	.	.	.	.	.
=2	=2	=2	=2	=2	=2
*	*2\right	*	*	*	*
8C/L	2.BB-\	.	(4a/	.	.
8E-/	.	.	.	.	.
8F/J	.	.	8g/	.	.
8C/L	.	.	4a/	.	.
8E-/	.	.	.	.	.
8F/J	.	.	8f/	.	.
8BB-/L	4.BB-\	.	4.b-/	.	.
8D/	.	.	.	.	.
8F/J	.	.	.	.	.
!	!	!	!LO:N:vis=4	!	!
8BB-/L	4.BB-\	.	4.f/)	.	.
8D/	.	.	.	.	.
8F/J	.	.	.	.	.
=3	=3	=3	=3	=3	=3
8BB-/L	4.BB-\	.	(4.b-\	2	.
8D/	.	.	.	.	<
8F/J	.	.	.	.	.
8BB-/L	4.BB-\	.	4dd\	4	.
8D/	.	.	.	.	.
8F/J	.	.	8ff\	5	.
8C/L	4.C\	.	4.cc\	3	[
8F/	.	.	.	.	.
8A/J	.	.	.	.	.
8C/L	4.C\	.	4a/	2	.
8F/	.	.	.	.	.
8A/J	.	.	8f/	1	.
=4	=4	=4	=4	=4	=4
8C/L	4.C\	.	4.c/	2	.
8En/	.	.	.	.	.
8B-/J	.	.	.	.	.
8C/L	4.C\	.	4.g/	5	>
8E/	.	.	.	.	.
8B-/J	.	.	.	.	.
8FF/L	4.ryy	5	4.f/)	.	]
8AA/	.	4	.	.	.
8C/J	.	2	.	.	.
8F\L	4.ryy	1	4.r	.	.
8E-X\	.	2	.	.	.
8C\J	.	3	.	.	.
!!LO:LB:g=original
=5	=5	=5	=5	=5	=5
8BB-/L	4.BB-\	.	(4.f/	1	.
8D/	.	.	.	.	.
8F/J	.	.	.	.	.
8BB-/L	4.BB-\	.	4dd\	.	.
8D/	.	.	.	.	.
8F/J	.	.	8cc\	.	.
8BB-/L	4.BB-\	.	4.b-\)	.	.
8D/	.	.	.	.	.
8F/J	.	.	.	.	.
8BB-/L	4.BB-\	.	4.b-\	.	.
8D/	.	.	.	.	.
8F/J	.	.	.	.	.
=6	=6	=6	=6	=6	=6
8C/L	2.BB-\	.	(4a/	.	.
8E-/	.	.	.	.	.
8F/J	.	.	8g/	.	.
8C/L	.	.	4a/	.	.
8E-/	.	.	.	.	.
8F/J	.	.	8f/	.	.
8BB-/L	4.BB-\	.	4.b-/	.	.
8D/	.	.	.	.	.
8F/J	.	.	.	.	.
8BB-/L	4.BB-\	.	4.f/)	.	.
8D/	.	.	.	.	.
8F/J	.	.	.	.	.
=7	=7	=7	=7	=7	=7
8BB-/L	4.BB-\	.	(4.b-\	.	.
8D/	.	.	.	.	.
8F/J	.	.	.	.	.
8BB-/L	4.BB-\	.	4dd\	.	.
8D/	.	.	.	.	.
8F/J	.	.	8ff\	.	.
8C/L	4.C\	.	4.cc\	.	.
8F/	.	.	.	.	.
8A/J	.	.	.	.	.
8C/L	4.C\	.	4a/	.	.
8F/	.	.	.	.	.
8A/J	.	.	8f/	.	.
=8	=8	=8	=8	=8	=8
8C/L	4.C\	.	4.c/	.	.
8En/	.	.	.	.	.
8B-/J	.	.	.	.	.
8C/L	4.C\	.	4.g/	.	.
8E/	.	.	.	.	.
8B-/J	.	.	.	.	.
8FF/L	4FF\	.	4.f/)	.	.
8AA/	.	.	.	.	.
8C/J	2ryy	.	.	.	.
*	*	*above	*	*	*
8F\L	.	1	4.r	.	.
8E-X\	.	3	.	.	.
8D\J	.	4	.	.	.
!!LO:LB:g=original
=9	=9	=9	=9	=9	=9
8C/L	4.C\	.	4.cc\	4	.
8E-/	.	.	.	.	.
8G/J	.	.	.	.	.
8C/L	4.C\	.	(4cc\	.	.
8E-/	.	.	.	.	.
8G/J	.	.	8dd\)	.	.
!LO:N:vis=2	!	!	!	!	!
8D/L	2.D\	.	4.bn\	.	.
8F/	.	.	.	.	.
8G/J	.	.	.	.	.
8Bn/L	.	.	4.g/	.	.
8G/	.	.	.	.	.
8F/J	.	.	.	.	.
=10	=10	=10	=10	=10	=10
*	*	*below	*	*	*
8E-/L	4.E-\	4	(4cc\	.	.
8G/	.	.	.	.	<
8c/J	.	.	8g/)	.	.
8BBn/L	4.BBn\	5	(4dd\	.	.
8D/	.	.	.	.	.
8G/J	.	.	8g/)	.	[
*	*	*	*2\right	*	*
!	!LO:N:vis=4	!	!	!	!
8C/L	4.C\	5	2.ee-^\	4	.
*	*	*above	*	*	*
8E-/	.	4	.	.	.
8G/J	.	2	.	.	.
8c\L	4.ryy	1	.	.	.
8e-\	.	3	.	.	.
8g\J	.	1	.	.	.
=11	=11	=11	=11	=11	=11
*	*	*^	*	*	*
4.c/	8c\L	1	5	(4ee-\	3	.
.	8e-\	.	.	.	.	.
.	8g\J	.	.	8gg\	.	.
4.A/	8A\L	.	5	4ff\	.	.
.	8c\	.	.	.	.	>
.	8f\J	.	.	8ee-\	.	.
4.B-/	8B-\L	.	4	4.dd\	.	.
.	8d\	.	.	.	.	.
.	8f\J	.	.	.	.	.
4.G/	8G\L	.	5	4cc\	.	.
.	8c\	.	.	.	.	]
.	8en\J	.	.	8b-\)	4	.
*	*	*v	*v	*	*	*
=12	=12	=12	=12	=12	=12
*	*	*below	*	*	*
4.F/	8F\L	5	(4.cc\	5	.
.	8A\	.	.	.	.
.	8e-\J	.	.	.	.
4.F/	8F\L	.	4f/	1	.
.	8c\	.	.	.	.
.	8e-\J	.	8a/	.	.
4.B-/	8B-\L	4	[4.b-\)	.	.
.	8d\	.	.	.	.
.	8f\J	.	.	.	.
4.ryy	8B-\	.	8b-\]	.	.
.	8r	.	8r	.	.
.	8r	.	8r	.	.
*v	*v	*	*	*	*
==	==	==	==	==
*-	*-	*-	*-	*-
!!!system-decoration: {p1}
!!!RDF**kern: > = above
!!!RDF**kern: < = below
!!!ENC: Andrzej Kubiczek
!!!END: 2021-05-02
!!!ENC: Andrzej Gręziak
!!!END: 2021-04-17
!!!YEC: Copyright 2022 Narodowy Instytut Fryderyka Chopina (https://polishscores.org)
!!!YEM: License CC-BY-4.0 (https://creativecommons.org/licenses/by/4.0)
